src/assets/skills_html.svg

<?xml version="1.0" encoding="utf-8"?><!-- Uploaded to: SVG Repo, www.svgrepo.com, Generator: SVG Repo Mixer Tools -->
<svg width="800px" height="800px" viewBox="0 0 16 16" fill="none" xmlns="http://www.w3.org/2000/svg">
<path fill-rule="nonzero" clip-rule="nonzero" d="M3 1.5C2.86193 1.5 2.75 1.61193 2.75 1.75V11.3003C2.75 11.3896 2.79769 11.4722 2.87509 11.5168L7.73381 14.3194C7.80942 14.363 7.90231 14.364 7.97886 14.3221L13.1201 11.5048C13.2002 11.4609 13.25 11.3769 13.25 11.2856V1.75C13.25 1.61193 13.1381 1.5 13 1.5H3ZM1.25 1.75C1.25 0.783502 2.0335 0 3 0H13C13.9665 0 14.75 0.783503 14.75 1.75V11.2856C14.75 11.9248 14.4015 12.5131 13.841 12.8203L8.69968 15.6375C8.16383 15.9311 7.51363 15.924 6.98434 15.6187L2.12562 12.8162C1.58382 12.5037 1.25 11.9258 1.25 11.3003V1.75ZM5 4.25C5 3.83579 5.33579 3.5 5.75 3.5H10.3654C10.7796 3.5 11.1154 3.83579 11.1154 4.25C11.1154 4.66421 10.7796 5 10.3654 5H6.5V6.71154H10.3654C10.7796 6.71154 11.1154 7.04732 11.1154 7.46154V10.3462C11.1154 10.6302 10.9549 10.8899 10.7008 11.017L8.3931 12.1708C8.18196 12.2764 7.93343 12.2764 7.72228 12.1708L5.41459 11.017C5.1605 10.8899 5 10.6302 5 10.3462V9.76923C5 9.35502 5.33579 9.01923 5.75 9.01923C6.16421 9.01923 6.5 9.35502 6.5 9.76923V9.88263L8.05769 10.6615L9.61539 9.88263V8.21154H5.75C5.33579 8.21154 5 7.87575 5 7.46154V4.25Z" fill="#3fbac2"/>
</svg>

<!-- Uploaded to: SVG Repo, www.svgrepo.com, Generator: SVG Repo Mixer Tools -->
<svg xmlns="http://www.w3.org/2000/svg" fill="none" viewBox="0 0 16 16">
  <path fill="#3fbac2" d="M3 1.5a.25.25 0 0 0-.25.25v9.55c0 .09.048.172.125.217l4.859 2.802a.25.25 0 0 0 .245.003l5.141-2.817a.25.25 0 0 0 .13-.22V1.75A.25.25 0 0 0 13 1.5H3Zm-1.75.25C1.25.784 2.034 0 3 0h10c.966 0 1.75.784 1.75 1.75v9.536a1.75 1.75 0 0 1-.909 1.534L8.7 15.637a1.75 1.75 0 0 1-1.716-.018l-4.858-2.803A1.75 1.75 0 0 1 1.25 11.3V1.75ZM5 4.25a.75.75 0 0 1 .75-.75h4.615a.75.75 0 0 1 0 1.5H6.5v1.712h3.865a.75.75 0 0 1 .75.75v2.884a.75.75 0 0 1-.414.671l-2.308 1.154a.75.75 0 0 1-.67 0l-2.308-1.154a.75.75 0 0 1-.415-.67v-.578a.75.75 0 0 1 1.5 0v.114l1.558.779 1.557-.78v-1.67H5.75a.75.75 0 0 1-.75-.75V4.25Z"/>
</svg>
